X:452
T:Her Killing Eyes
C:John Young, 1718-19
S:Colin Hume's website,  colinhume.com  - chords can also be printed below the stave.
Q:1/2=110
M:2/2
R:Reel
L:1/4
%%MIDI ratio 3 1
%%MIDI program 6        % Harpsichord
%%MIDI chordprog 6      % Harpsichord
%%MIDI bassprog 6       % Harpsichord
K:F
P:A
|: [I: MIDI=gchord bz3bz3] "F"fz fz | [I: MIDI=gchord GIHI] "/"f/a/g/a/ fc | "Bb"fe/d/ "C7"cB | "F"A2 Bc | "Bb"d/e/d/c/ "Gm"B/c/B/A/ |
"C7"G2 A/B/A/B/ | "F"c/d/c/B/ "C7"A/B/A/G/ | "Dm"F2 f/e/d/c/ | "G7"=Bc c>B | "C"c4 :|
P:B
|: "C"gz gz | "/"g/a/g/f/ e/f/e/d/ | "C7"cc c/G/A/B/ | "F"A/B/A/G/ F2 |
"F"ff "F7"f/c/d/_e/ | "Bb"d2 e/f/e/f/ | "G"gg "G7"g/d/e/f/ | "C"e2 "C7"b2 |
"Dm"a/f/d/f/ "C"g/e/c/e/ | "F"f2 "C"c2 | "F"AG/F/ "C"Ec | "F"AG/F/ "C"Ec | "F"f/c/B/A/ "C7"G>F | "F"F4 :|

